icons/map-pin-off.svg

<svg width="24" height="24" viewBox="0 0 24 24" fill="none" xmlns="http://www.w3.org/2000/svg">
<path fill-rule="evenodd" clip-rule="evenodd" d="M1.29289 1.29289C1.68342 0.902369 2.31658 0.902369 2.70711 1.29289L23.7071 22.2929C24.0976 22.6834 24.0976 23.3166 23.7071 23.7071C23.3166 24.0976 22.6834 24.0976 22.2929 23.7071L16.9595 18.3738L14.1116 21.147C13.5472 21.696 12.7872 22.0002 12.0005 22.0002C11.2138 22.0002 10.4541 21.6964 9.88971 21.1473L5.64544 17.0153C4.3849 15.7878 3.52323 14.2204 3.17392 12.5102C2.82457 10.7998 3.00417 9.02717 3.6888 7.41773C3.91267 6.89146 4.18714 6.3906 4.50694 5.92115L1.29289 2.70711C0.902369 2.31658 0.902369 1.68342 1.29289 1.29289ZM5.95409 7.3683C5.79359 7.6351 5.65151 7.9131 5.52921 8.20061C5.00282 9.43806 4.86552 10.7981 5.13346 12.11C5.40144 13.422 6.06361 14.6308 7.04057 15.5823C7.0406 15.5823 7.04053 15.5822 7.04057 15.5823L11.2843 19.7137C11.4699 19.8943 11.727 20.0002 12.0005 20.0002C12.274 20.0002 12.5311 19.8943 12.7167 19.7137L15.5452 16.9594L12.9367 14.3509C12.7946 14.7301 12.4288 15 12 15C9.79086 15 8 13.2091 8 11C8 10.5266 8.08262 10.0713 8.23434 9.64855L5.95409 7.3683ZM11.5303 12.9445C10.803 12.7694 10.2305 12.197 10.0555 11.4697L11.5303 12.9445ZM12 4.00024C10.9944 4.00024 10.0059 4.21036 9.09975 4.61053C8.59453 4.83365 8.00411 4.60496 7.781 4.09975C7.55789 3.59453 7.78657 3.00411 8.29179 2.781C9.45251 2.2684 10.7162 2.00024 12 2.00024C13.7742 2.00024 15.5106 2.51243 16.9899 3.4749C18.4694 4.43756 19.6267 5.80859 20.3112 7.41773C20.9958 9.02717 21.1754 10.7998 20.8261 12.5102C20.6909 13.1723 20.4788 13.8131 20.1965 14.4211C19.9639 14.922 19.3693 15.1395 18.8683 14.9069C18.3674 14.6743 18.1499 14.0797 18.3825 13.5788C18.5998 13.1107 18.7627 12.6182 18.8665 12.11C19.1345 10.7981 18.9972 9.43806 18.4708 8.20061C17.9443 6.96284 17.0508 5.9006 15.8991 5.1513C14.7472 4.40182 13.3903 4.00024 12 4.00024Z" fill="black"/>
</svg>

<svg
  width="24"
  height="24"
  viewBox="0 0 24 24"
  xmlns="http://www.w3.org/2000/svg"
>
  <path
    fill-rule="evenodd"
    clip-rule="evenodd"
    d="M1.293 1.293a1 1 0 0 1 1.414 0l21 21a1 1 0 0 1-1.414 1.414l-5.334-5.333-2.847 2.773A3.029 3.029 0 0 1 12 22a3.027 3.027 0 0 1-2.111-.853l-4.245-4.132a8.73 8.73 0 0 1-2.471-4.505 8.6 8.6 0 0 1 .515-5.092 8.723 8.723 0 0 1 .818-1.497L1.293 2.707a1 1 0 0 1 0-1.414zm4.661 6.075a6.6 6.6 0 0 0-.82 4.742 6.73 6.73 0 0 0 1.907 3.472l4.243 4.132c.186.18.443.286.716.286.274 0 .531-.106.717-.286l2.828-2.755-2.608-2.608A1 1 0 0 1 12 15a4 4 0 0 1-3.766-5.351l-2.28-2.28zm5.576 5.576a2.003 2.003 0 0 1-1.474-1.474l1.474 1.474zM12 4c-1.006 0-1.994.21-2.9.61a1 1 0 1 1-.808-1.829 9.183 9.183 0 0 1 8.698.694 8.839 8.839 0 0 1 3.321 3.943 8.601 8.601 0 0 1-.114 7.003 1 1 0 0 1-1.814-.842A6.6 6.6 0 0 0 18.47 8.2a6.838 6.838 0 0 0-2.572-3.05A7.154 7.154 0 0 0 12 4.001z"
  />
</svg>
